X:1
T:Änglarnas hem
T:August Söderman (1832-1876)
T:Oskar Wijkander
T:Änglarnas hem
T:©PA Aglert Edition may be freely distributed, duplicated, performed and recorded
T:©PA Aglert Edition may be freely distributed, duplicated, performed and recorded
T:©PA Aglert Edition may be freely distributed, duplicated, performed and recorded
T:©PA Aglert Edition may be freely distributed, duplicated, performed and recorded
T:©PA Aglert Edition may be freely distributed, duplicated, performed and recorded
T:©PA Aglert Edition may be freely distributed, duplicated, performed and recorded
T:©PA Aglert Edition may be freely distributed, duplicated, performed and recorded
T:©PA Aglert Edition may be freely distributed, duplicated, performed and recorded
C:August Söderman (1832-1876)
Z:©PA Aglert
Z:Edition may be freely distributed, duplicated, performed and recorded
%%score [ 1 2 3 4 ]
L:1/8
Q:1/4=120
M:6/4
K:C
V:1 treble nm="S"
V:2 treble nm="A"
V:3 treble-8 nm="T"
V:4 bass nm="B"
V:1
!pp! E2 | E3 E E2 E2 E2!<(! E2 | E2!<)! E2 E2 A4 A2 |!mf! A2 D2 z E (FG/F/)!>(! E2!>)! D2 | %4
w: Det|bor i För- los- sa- rens|him- mels- ka hus en|äng- el, vars spa- * * nan- de|
 ^D6 E4 E2 | E2 z2!pp! EE E2 E2 E2 |!<(! E2 E2 E2 B2-!<)! B z!f! B2 | %7
w: ö- ga är|milt, likt de tind- ran- de|stjär- nor- nas ljus _ och|
 B2 z2 AA!>(! (AB/A/) G2!>)! ^F2 | ^F6 G2 z4 | z4!p!"^marcato" E2 !courtesy!=F3 F F2 | %10
w: klart lik- som allt _ _ i det|hö- ga.|Han sän- ker sin|
!<(! F4 F2!<)! d4!mf! d2 | d3 F F2 F2 A2 F2 | F6 E2 z4 | z4!mf! C2"^marcato" C3 C C2 | %14
w: blick i- bland och|sö- ker det go- da, det|skö- na,|och vin- kar dit|
!<(! C4!<)! C2 B4 A2 | G3 E C2 C2 D2 E2 |!>(! (E6 E4 D2) | C6-!>)! C2 z2"^dolce" G2 || %18
w: opp dit opp de|trog- na, som han vill be-|lö- * *|na. _ Nyss|
 G6-!<(! G4!<)! G2!f! | !>!c3 F!>(! A2 G2-!>)! G z E2 | E4 (3:2:2E2 E D2 E2 F2 | D6 E2 z2 G2 | %22
w: sågs _ en|un- der- bar glans, _ han|log, som blott äng- lar det|kun- na; ett|
 G6-!<(! G2 G2!<)! G2!ff! | !>!d3 F A2 G2- G z E2 | E4 (3:2:2E2 E D2 E2 F2 | %25
w: ö- * ga, som|lik- na- de hans, _ en|själ som han fri- het vill|
!>(! (E4 D2)!>)! C2 z2 z!f! G | A2 A2 z G (3(ABc) B2 G2 | A2 B2 G2 A4 A2 | %28
w: un- * na. Och|jung- frun, som där _ _ i sin|snö- vi- ta skrud bland|
 B2 B2 A2 (3(Bcd)!<(! c2 A2!<)! |!ff! (Bc"^rall.""^rall.""^rall.""^rall." e2 d2) B4"^dolce" G2 | %30
w: blom- mor- na slum- * * rar, han|för- * * * de, för-|
"^a tempo" G6-!<(! G2 E2!<)! G2!ff! | !>!c3 F A2 G2- G z E2 | E4 (3:2:2E2 E D2 E2 F2 | %33
w: kla- * rad som|him- me- lens brud, _ till|äng- lar- nas hem dit hon|
!>(! (E4 D2)!>)! C2 z2!pp! E2 || E2 E2 z E E2 E2 E2 |!<(! E2 E2 E2 A4!<)! A2!mf! | %36
w: hör- * de. Likt|stjär- nan, som slock- nar, när|so- len går opp, för-|
!>(! !tenuto!A2 !tenuto!D2 z!p! E (FG/F/) E2!>)! D2 | !tenuto!^D6 E2 z2!pp! E2 | %38
w: svann hon. Ske, Her- * * re, din|vil- ja! Hon|
 E2 z2 EE E2 E2 E2 |!<(! E2!<)! E2 E2 B2- B z!f! B2 | B2 A2 A2 (AB/A/) G2 ^F2 | %41
w: var som den fag- ras- te|ros u- ti knopp, _ hon|blev som den ble- * * kas- te|
!>(! !tenuto!^F6!>)! G2 z4 | z4!p! E2"^marcato" !courtesy!=F3 F F2 |!<(! F4!<)! F2!mf! d4 d2 | %44
w: lil- ja!|För- un- der- ligt|dö- den får en|
 d3 F F2 F2 A2 F2 |!>(! F6!>)! E2 z4 | z4!mf! C2"^marcato" C3 C C2 |!<(! C4!<)! C2 B4 A2 | %48
w: grav i- bland blom- mor- na|grä- va;|men Han, för- står|nog att så den|
 G3 E!>(! C2 C2 D2!>)! E2 | E2 D2 z"^cresc." D F2 E2 z E | %50
w: grö- da, som e- vigt skall|le- va, som e- vigt skall|
 G2 F2 z"^rall.""^rall.""^rall.""^rall." F !tenuto!e2 !tenuto!d2 !tenuto!c2 | c6 G4 z2 | %52
w: le- va, som e- vigt skall|le- va,|
 z4!p!!<(! E2!<)! G2!>(! F2!>)! E2 | (E12- |!>(! E6 D6)!>)! | C12- | C2 z2 z2 z2 z2 z2 |] %57
w: som e- vigt skall|le-||va!|_|
V:2
!pp! C2 | C3 C C2 C2 C2!<(! C2 | C2!<)! C2 E2 E4 E2 |!mf! D2 C2 z C C2!>(! B,2!>)! B,2 | C6 C4 C2 | %5
w: Det|bor i För- los- sa- rens|him- mels- ka hus en|äng- el, vars spa- nan- de|ö- ga är|
 C2 z2!pp! CC C2 C2 C2 |!<(! C2 C2 E2 E2-!<)! E z!f! E2 | E2 z2 EE!>(! ^D2 D2!>)! D2 | %8
w: milt, likt de tind- ran- de|stjär- nor- nas ljus _ och|klart lik- som allt i det|
 ^D6 E2 z2!p! E2"^marcato" | E3 E E2 E2 E2 E2 |!<(! D2 D2 D2!<)! F4!mf! F2 | F3 D D2 D2 F2 D2 | %12
w: hö- ga. Han|sän- ker sin blick ned till|jor- den i- bland och|sö- ker det go- da, det|
 D6 C2 z2!mf! C2"^marcato" | C3 C C2 B,2 B,2 B,2 |!<(! A,2 A,2!<)! C2 C4 C2 | B,3 C C2 C2 B,2 C2 | %16
w: skö- na, och|vin- kar dit opp till de|sa- li- gas land de|trog- na, som han vill be-|
!>(! (A,6 B,6) | C6-!>)! C2 z2"^dolce" E2 || (E3 C) (3(DE)F!<(! G2 D2!<)! G2!f! | %19
w: lö- *|na. _ Nyss|sågs _ i _ hans ö- ga en|
 !>!A3 C!>(! F2 E2-!>)! E z C2 | (C3 B,) (3(A,B,)C C2 C2 C2 | (C2 A,2 B,2) C2 z2 E2 | %22
w: un- der- bar glans, _ han|log, _ som _ blott äng- lar det|kun- * * na; Han|
 (E3 C) (3(DE)F!<(! G2 D2!<)! G2!ff! | !>!A3 D F2 E2- E z C2 | (C3 B,) (3(A,B,)C C2 C2 C2 | %25
w: möt- * te _ ett ö- ga, som|lik- na- de hans, _ en|själ _ som _ han fri- het vill|
!>(! B,6!>)! C2 z2 z!f! F | F2 F2 z F F2 F2 F2 | F2 F2 F2 F4 F2 | F2 F2 F2 F2!<(! F2 F2!<)! | %29
w: un- na. Och|jung- frun, som där i sin|snö- vi- ta skrud bland|blom- mor- na slum- rar, han|
!ff! F6 F4"^dolce" F2 | (E3 C) (3(DE)F!<(! E2 C2!<)! E2!ff! | !>!F3 F F2 E2- E z C2 | %32
w: för- de, för-|kla- * rad _ och ren som en|him- me- lens brud, _ till|
 (C3 B,) (3(A,B,)C C2 C2 C2 |!>(! B,6!>)! C2 z2!pp! C2 || C2 C2 z C C2 C2 C2 | %35
w: äng- * lar- * nas hem dit hon|hör- de. Likt|stjär- nan, som slock- nar, när|
!<(! C2 C2 E2 E4!<)! E2!mf! |!>(! !tenuto!D2 !tenuto!C2 z!p! C C2 B,2!>)! B,2 | %37
w: so- len går opp, för-|svann hon. Ske, Her- re, din|
 !tenuto!C6 C2 z2!pp! C2 | C2 z2 CC C2 C2 C2 |!<(! C2!<)! C2 E2 E2- E z!f! E2 | %40
w: vil- ja! Hon|var som den fag- ras- te|ros u- ti knopp, _ hon|
 E2 E2 E2 ^D2 D2 D2 |!>(! !tenuto!^D6!>)! E2 z2!p! E2 |"^marcato" E3 E E2 E2 E2 E2 | %43
w: blev som den ble- kas- te|lil- ja! För-|un- der- ligt tycks det, att|
!<(! D2 D2!<)! D2!mf! F4 F2 | F3 D D2 D2 F2 D2 |!>(! D6!>)! C2 z2!mf! C2"^marcato" | %46
w: dö- den kan få en|grav i- bland blom- mor- na|grä- va; men|
 C3 C C2 B,2 B,2 B,2 |!<(! A,2 A,2!<)! C2 C4 C2 | B,3 C!>(! C2 C2 B,2!>)! C2 | %49
w: Han, som vill skör- da, för-|står nog att så den|grö- da, som e- vigt skall|
 C2 C2 z"^cresc." C C2 C2 z C | C2 C2 z F !tenuto!F2 !tenuto!F2 !tenuto!F2 | E6 E4 z2 | %52
w: le- va, som e- vigt skall|le- va, som e- vigt skall|le- va,|
 z4!p!!<(! C2!<)! C2!>(! C2!>)! C2 | (C12 |!>(! B,12)!>)! | C12- | C2 z2 z2 z2 z2 z2 |] %57
w: som e- vigt skall|le-||va!|_|
V:3
!pp! c2 | c3 c c2 B2 B2!<(! B2 | A2!<)! A2 c2 c4 c2 |!mf! c2 A2 z A A2!>(! G2!>)! G2 | _A6 G4 G2 | %5
w: Det|bor i För- los- sa- rens|him- mels- ka hus en|äng- el, vars spa- nan- de|ö- ga är|
 G2 z2!pp! cc B2 B2 B2 |!<(! A2 A2 c2 c2-!<)! c z!f! c2 | c2 z2 cc!>(! B2 B2!>)! B2 | c6 B2 z2 z2 | %9
w: milt, likt de tind- ran- de|stjär- nor- nas ljus _ och|klart lik- som allt i det|hö- ga.|
 z4 z2 z4!p! e2 |"^marcato" d3 d d2 d4!mf! d2 | d3 d c2 B2 d2 B2 | (B2 c2 d2) e2 z2 z2 | %13
w: Han|sän- ker sin blick och|sö- ker det go- da, det|skö- * * na,|
 z4 z2!mf! z4"^marcato" B2 |!<(! A3 A!<)! A2 G4 ^F2 | G3 c A2 G2 G2 G2 |!>(! F12 | %17
w: och|vin- kar dit opp de|trog- na, som han vill be-|lö-|
 E6-!>)! E2 z2"^dolce" c2 || (c3 E) (3(Gc)d!<(! e2 G2!<)! e2!f! | !>!f3 A!>(! B2 c2-!>)! c z z2 | %20
w: na. _ Nyss|sågs _ i _ hans ö- ga en|un- der- bar glans, _|
 z2 z2 (3:2:2A2 A A2 A2 A2 | G6 G2 z2 c2 | (c3 E) (3(Gc)d!<(! e2 G2!<)! e2!ff! | %23
w: som blott äng- lar det|kun- na; Han|möt- * te _ ett ö- ga, som|
 !>!f3 A B2 c2- c z z2 | z2 z2 (3:2:2A2 A A2 A2 _A2 |!>(! (G4 F2)!>)! E2 z2 z!f! B | %26
w: lik- na- de hans, _|som han fri- het vill|un- * na. Och|
 c2 c2 z B (3(cde) d2 B2 | c2 d2 B2 c4 c2 | d2 d2 c2 (3(def)!<(! e2 c2!<)! | %29
w: jung- frun, som där _ _ i sin|snö- vi- ta skrud bland|blom- mor- na slum- * * rar, han|
!ff! (de g2 f2) d4"^dolce" B2 | (c3 E) (3(Gc)d!<(! c2 B2!<)! _B2!ff! | %31
w: för- * * * de, för-|kla- * rad _ och ren som en|
 !>!A3 A !courtesy!=B2 c2- c z z2 | z2 z2 (3:2:2A2 A A2 A2 A2 |!>(! (G4 F2)!>)! E2 z2!pp! c2 || %34
w: him- me- lens brud, _|till det hem dit hon|hör- * de. Likt|
 c2 c2 z c B2 B2 B2 |!<(! A2 A2 c2 c4!<)! c2!mf! |!>(! !tenuto!c2 !tenuto!A2 z!p! A A2 G2!>)! G2 | %37
w: stjär- nan, som slock- nar, när|so- len går opp, för-|svann hon. Ske, Her- re, din|
 !tenuto!_A6 G2 z2!pp! c2 | c2 z2 cc B2 B2 B2 |!<(! A2!<)! A2 c2 c2- c z!f! c2 | %40
w: vil- ja! Hon|var som den fag- ras- te|ros u- ti knopp, _ hon|
 c2 c2 c2 B2 B2 B2 |!>(! !tenuto!c6!>)! B2 z2 z2 | z4 z2 z4!p!"^marcato" e2 | %43
w: blev som den ble- kas- te|lil- ja!|att|
!<(! d3 d!<)! d2!mf! d4 d2 | d3 d c2 B2 d2 B2 |!>(! (B2 c2 d2)!>)! e2 z2 z2 | z4 z2 z4!mf! B2 | %47
w: dö- den kan få en|grav i- bland blom- mor- na|grä- * * va;|men|
"^marcato"!<(! A3 A!<)! A2 G4 ^F2 | G3 c!>(! A2 G2 G2!>)! G2 | A2 A2 z"^cresc." A _B2 B2 z B | %50
w: Han, för- står så den|grö- da, som e- vigt skall|le- va, som e- vigt skall|
 c2 c2 z c !tenuto!c2 !tenuto!c2 !tenuto!c2 | c6 c4 z2 | %52
w: le- va, som e- vigt skall|le- va,|
 z4!p!!<(! G2!<)! !courtesy!=B2!>(! A2!>)! G2 | (G12 |!>(! F12)!>)! | E12- | E2 z2 z2 z2 z2 z2 |] %57
w: som e- vigt skall|le-||va!|_|
V:4
!pp! C2 | C3 C C2 B,2 B,2!<(! B,2 | A,2!<)! A,2 A,2 G,4 G,2 | %3
w: Det|bor i För- los- sa- rens|him- mels- ka hus en|
!mf! F,2 F,2 z E, (D,E,/D,/)!>(! G,2!>)! G,2 | C,6 C,4 C,2 | C,2 z2!pp! CC B,2 B,2 B,2 | %6
w: äng- el, vars spa- * * nan- de|ö- ga är|milt, likt de tind- ran- de|
!<(! A,2 A,2 A,2 G,2-!<)! G, z!f! G,2 | ^F,2 z2 F,F,!>(! (F,G,/F,/) B,2!>)! B,2 | C6 C,2 z2 z2 | %9
w: stjär- nor- nas ljus _ och|klart lik- som allt _ _ i det|hö- ga.|
 z12 | z4!mf! D2"^marcato" C3 C C2 | B,3 B, A,2 G,2 B,2 G,2 | (G,2 A,2 B,2) C2 z2 z2 | z12 | %14
w: |till jor- den och|sö- ker det go- da, det|skö- * * na,||
 z4!mf!"^marcato" A,2 G,4 D,2 | G,3 C !courtesy!=F,2 E,2 D,2 C,2 |!>(! (F,6 G,,6) | %17
w: dit opp de|trog- na, som han vill be-|lö- *|
 C,6-!>)! C,2 z2"^dolce" C,2 || C,6-!<(! C,4!<)! C,2!f! | !>!C3 C!>(! C2 C2-!>)! C z A,2 | %20
w: na. _ Nyss|sågs _ en|un- der- bar glans, _ han|
 (A,3 E,) (3(C,E,)A, F,2 E,2 D,2 | G,6 C,2 z2 C,2 | C,6-!<(! C,2 C,2!<)! C,2!ff! | %23
w: log, _ som _ blott äng- lar det|kun- na; ett|ö- * ga, som|
 !>!C3 C C2 C2- C z A,2 | (A,3 E,) (3(C,E,)A, F,2 E,2 D,2 |!>(! (G,2 G,,4)!>)! C,2 z2 z!f! G, | %26
w: lik- na- de hans, _ en|själ _ som _ han fri- het vill|un- * na. Och|
 G,2 G,2 z G, G,2 G,2 G,2 | G,2 G,2 G,2 G,4 G,2 | G,2 G,2 G,2 G,2!<(! G,2 G,2!<)! | %29
w: jung- frun, som där i sin|snö- vi- ta skrud bland|blom- mor- na slum- rar, han|
!ff! G,6 G,4"^dolce" G,2 | C,6-!<(! C,2 C,2!<)! C,2!ff! | !>!C,3 C, C,2 C,2- C, z A,2 | %32
w: för- de, för-|kla- * rad som|him- me- lens brud, _ till|
 (A,3 E,) (3(C,E,)A, F,2 E,2 D,2 |!>(! (G,2 G,,4)!>)! C,2 z2!pp! C2 || C2 C2 z C B,2 B,2 B,2 | %35
w: äng- * lar- * nas hem dit hon|hör- * de. Likt|stjär- nan, som slock- nar, när|
!<(! A,2 A,2 A,2 G,4!<)! G,2!mf! |!>(! !tenuto!F,2 !tenuto!F,2 z!p! E, (D,E,/D,/) G,2!>)! G,2 | %37
w: so- len går opp, för-|svann hon. Ske, Her- * * re, din|
 !tenuto!C,6 C,2 z2!pp! C2 | C2 z2 CC B,2 B,2 B,2 |!<(! A,2!<)! A,2 A,2 G,2- G, z!f! G,2 | %40
w: vil- ja! Hon|var som den fag- ras- te|ros u- ti knopp, _ hon|
 ^F,2 F,2 F,2 (F,G,/F,/) B,2 B,2 |!>(! !tenuto!C6!>)! E,2 z2 z2 | z12 | %43
w: blev som den ble- * * kas- te|lil- ja!||
 z4!mf!"^marcato" D2 C3 C C2 | B,3 B, A,2 G,2 B,2 G,2 |!>(! (G,2 A,2 B,2)!>)! C2 z2 z2 | z12 | %47
w: en grav, ja, en|grav i- bland blom- mor- na|grä- * * va;||
 z4!mf!"^marcato" A,2 G,4 D,2 | G,3 C!>(! !courtesy!=F,2 E,2 D,2!>)! C,2 | %49
w: Han sår den|grö- da, som e- vigt skall|
 F,2 F,2 z"^cresc." F, G,2 G,2 z G, | A,2 A,2 z A, !tenuto!_A,2 !tenuto!A,2 !tenuto!A,2 | %51
w: le- va, som e- vigt skall|le- va, som e- vigt skall|
 G,6 G,4 z2 | z12 | z4!p! G,2 G,2 G,2 G,2 |!>(! G,,12!>)! | C,12- | C,2 z2 z2 z2 z2 z2 |] %57
w: le- va,||som e- vigt skall|le-|va!|_|

